svg/u1f5fb.svg

<svg viewBox="0 0 128 128" xmlns="http://www.w3.org/2000/svg">
  <radialGradient id="SVGID_1_" cx="56.4042" cy="76.1023" fx="55.4349" fy="76.1412" gradientTransform="matrix(-0.1016 0.9948 -2.2231 -0.2271 231.3179 37.27)" gradientUnits="userSpaceOnUse" r="40.285">
    <stop offset="0.2511" stop-color="#346FD0"/>
    <stop offset="0.2615" stop-color="#336DCE"/>
    <stop offset="0.4516" stop-color="#284DA5"/>
    <stop offset="0.5501" stop-color="#244196"/>
  </radialGradient>
  <path d="M72.36,61.35c-0.63-0.39-28.62,4.7-28.62,4.7S32.85,78.14,30.56,80.2 c-2.29,2.05-7.02,6.15-9.86,8.28s-8.36,6.07-8.36,6.07l8.52,8.44l49.53,12.07c0,0,42.84-11.47,42.43-12.29S72.36,61.35,72.36,61.35z " fill="url(#SVGID_1_)"/>
  <path d="M79.43,62.92l-4.32,12.34c0,0,6.38,9.89,8.22,12.34c1.84,2.45,11.05,12.83,11.05,12.83l20.55-9.27 c0,0-4.55-1.92-12.59-8.92c-8.04-6.99-12.59-11.19-12.59-11.19L79.43,62.92z" fill="#234096"/>
  <path d="M49.33,106.58c-0.1-0.31-7.94-7.22-7.94-7.22l-26.29,6.7c0,0-11.65,1.13-11.44,3.61 c0.21,2.47,1.44,7.63,6.19,10.72c4.74,3.09,11.96,3.09,16.6,3.3c4.64,0.21,28.05,0.21,40.93,0.31c12.89,0.1,32.68,0.21,39.7-0.52 s12.27-3.2,14.74-7.11c2.47-3.92,2.68-7.42,2.47-10.52c-0.21-3.09-30.42,6.91-30.42,6.91L49.33,106.58z" fill="#BDCCD1"/>
  <path d="M50.46,101.84c0,0-1.65-5.88-9.9-7.32c-8.25-1.44-11.86,2.06-14.43,1.75 c-2.58-0.31-4.12-3.2-9.9-2.78s-9.8,3.51-11.44,8.45s-1.13,7.73-1.13,7.73s1.34,5.88,13.2,5.57c11.86-0.31,15.36-4.64,20.31-7.73 c4.95-3.09,7.84-4.02,8.35-2.99c0.52,1.03-3.71,3.2-5.16,7.01s-1.86,5.57,0.52,5.67c2.37,0.1,37.43-0.41,48.36-0.41 s23.2-0.52,28.25-3.09c5.05-2.58,7.11-5.05,7.11-5.05s1.86-6.19-3.81-12.99c-5.67-6.81-13.09-7.32-18.56-5.36 c-5.46,1.96-8.56,6.81-8.56,6.81s-2.77-4.2-9.9-4.54c-13.2-0.62-19.9,10.41-19.9,10.41s-3.09-1.34-6.5-1.65 C54.87,101.09,50.46,101.84,50.46,101.84z" fill="#E4EBEE"/>
  <path d="M71.2,76.05c0,0,4.09,0.7,4.52,0.5c0.98-0.45,1.87-2.41,2.44-3.11c0.42-0.51,1.12-0.24,1.46-0.07 c0.35,0.17,3.18,2.95,3.47,3c0.29,0.06,2.4,0.15,2.52-0.25s-2.92-3.27-3.62-4.02c-0.69-0.75-1.42-1.93-0.46-2.48 c1.08-0.62,2.19,0.4,2.65,0.86c0.46,0.46,5.21,4.96,5.61,5.14c0.4,0.17,3.96-0.51,4.24-0.98c0.18-0.3-2.81-3.08-4.5-4.65 c-1.41-1.31-7.41-6.96-9.78-9.15s-5.57-5.49-6.32-6.41c-0.54-0.67-1.9-2.17-3.17-3.07c-0.49-0.34-1.12-0.83-1.63-0.53 c-0.42,0.25-0.91,0.59-0.91,0.59s-1.26,0.96-3.4,1.12c-1.92,0.14-2.7-0.58-3.12-1c-0.59-0.58-1.01-1.17-2.4-0.73 c-1.29,0.41-0.33,3.73-0.33,3.73L71.2,76.05z" fill="#8CC2EA"/>
  <path d="M45.72,72.62c0,0,2.48,1.16,2.83,2.66c0.35,1.5,0.58,3.73,1.59,4.29c1.56,0.87,5.72-4.98,6.78-6.43 c1.1-1.5,2.25-2.83,4.16-2.25c1.91,0.58,2.54,2.43,2.54,2.43l-0.12-5.26l-7.22-1.91l-7.22,5.49L45.72,72.62z" fill="#8CC2EA"/>
  <path d="M51.84,58.07c0.12-0.23,7.13-6.18,7.13-6.18s-0.15,0.9,0.16,1.32c0.35,0.46,2.15,1.76,2.78,1.87 c0.87,0.15,3.33,0,3.97-0.34s1.19-0.88,1.19-0.88l-0.1,2.21l-2.14,3.93l0.87,4.56l4.91,4.27l0.65,9c0,0-1.11,0.35-3.25,0.58 c-2.14,0.23-8.44,0.47-9.48,0.53c-1.04,0.06-2.13,0-1.03-1.33c1.03-1.25,2.37-2.6,3.12-3.41c0.75-0.81,1.79-2.71,0.52-4.04 c-1.27-1.33-2.37-1.04-3.47-0.75s-5.89,3.58-8.55,3.81c-2.66,0.23-3.61,0.01-4.65,0.42c-0.62,0.24-2.1,1.14-3.49,2.04 c-0.95,0.62-1.89,0.64-2.45,0.53c-1.32-0.24-0.25-1.53,1.49-3.6c1.12-1.32,2.07-3.79,2.07-3.79L51.84,58.07z" fill="#FFFFFF"/>
  <path d="M47.55,65.1c0.65,0.08-0.15,1.68-0.92,2.72c-0.77,1.03-1.22,1.95-0.61,2.37 c0.61,0.42,2.79-1.76,3.9-3.25c1.11-1.49,1.87-3.75,1.45-4.17c-0.42-0.42-1.22,0.69-1.65,0.23c-0.42-0.46,3.52-4.67,3.52-4.67 l5.83-5.21c0,0-0.12-0.48-0.09-1.1c0.02-0.44,0.21-1.47-0.37-1.15c-0.57,0.31-6.99,5.87-6.99,5.87S40.32,69.28,39.76,70 s-0.87,1.36-0.49,2.08c0.28,0.53,0.98,0.33,0.98,0.33S46.88,65.01,47.55,65.1z" fill="#C6E4F7"/>
  <path d="M56.81,57.45c-0.65-0.23-1.65,0.96-2.03,2.41c-0.38,1.45-0.34,2.22-1.03,3.4s-3.9,5.09-3.1,6.01 c0.8,0.92,5.63-4.54,6.31-5.32c0.83-0.95,1.53-1.84,1.45-2.68c-0.08-0.84-0.8-1.49-0.88-1.91C57.46,58.94,57.65,57.74,56.81,57.45z" fill="#C6E4F7"/>
  <path d="M65.24,52.41c0,0,1.39-0.35,2.09-0.85c1.05-0.76,1.46-0.8,1.49-0.78c0.32,0.24,0.6,0.71,0.31,1.64 c-0.28,0.9-0.94,2.58-1.25,3.27s-1.16,3.35-1.16,3.35s-0.82,1.85-0.14,2.73c0.38,0.49,2.28,2.99,3.13,4.02 c0.84,1.03,1.76,2.49,1.76,2.49l4.43,8.16c0,0-0.12,0.26-3.06,1.12c-0.99,0.29-3.02,0.58-3.02,0.58s-1.61-6.01-1.49-6.81 s0.5-3.71-0.15-4.36c-0.65-0.65-1.91-0.34-2.79-0.15s-2.56,0.61-2.98-0.15c-0.42-0.77,0.34-2.1,0.69-3.33s1.69-4.73,1.69-4.73 s1.64-3.04,1.73-3.34c0.32-1.09-0.5-0.62-0.5-0.62s1.38-0.81,0.9-2.03C66.66,52.03,65.24,52.41,65.24,52.41z" fill="#C6E4F7"/>
  <path d="M84.12,42.25c-0.78,0.92-0.63,2.65,0.74,3.32c1.44,0.7,2.48,0,2.95-0.66 c0.63-0.88,0.52-2.58-0.7-3.24C86.25,41.19,84.93,41.29,84.12,42.25z" opacity="0.5" fill="#FFFFFF"/>
  <path d="M89.74,60.64c-0.49,0.68-0.29,1.92,0.63,2.4s1.77,0.11,2.25-0.55c0.48-0.66,0.16-1.79-0.48-2.25 C91.21,59.57,90.22,59.97,89.74,60.64z" fill="#FFFFFF"/>
  <path d="M112.17,57.66c0,0.62,0.28,1.22,1.31,1.27s1.41-0.69,1.43-1.33c0.02-0.64-0.62-1.34-1.39-1.33 C112.74,56.3,112.17,56.91,112.17,57.66z" fill="#FFFFFF"/>
  <path d="M23.03,76.44c0.05,1.01,0.67,1.31,1.28,1.31s1.31-0.4,1.38-1.18c0.08-0.94-0.44-1.48-1.28-1.51 C23.57,75.03,23,75.77,23.03,76.44z" fill="#FFFFFF"/>
  <path d="M6.38,54.59c-0.08,1.15,1.03,1.63,1.63,1.6c0.6-0.04,1.48-0.36,1.6-1.33 c0.11-0.98-0.54-1.8-1.52-1.84C7.13,52.97,6.43,53.74,6.38,54.59z" fill="#FFFFFF"/>
  <path d="M25.79,54.21c-0.45,0.04-1.35,2.74-1.35,2.74s-2.76,0.17-2.85,0.49s1.9,2.1,1.9,2.1 s-0.73,2.42-0.39,2.69c0.34,0.26,2.65-1.28,2.65-1.28s2.42,1.56,2.72,1.33c0.3-0.23-0.49-2.87-0.49-2.87s1.88-1.63,1.86-2.01 s-2.76-0.38-2.76-0.38S26.11,54.19,25.79,54.21z" fill="#FFFFFF"/>
  <path d="M36.33,24.16c-0.78,0.92-0.63,2.65,0.74,3.32c1.44,0.7,2.48,0,2.95-0.66 c0.63-0.88,0.52-2.58-0.7-3.24C38.46,23.11,37.14,23.2,36.33,24.16z" opacity="0.5" fill="#FFFFFF"/>
  <path d="M89.81,13.89c-1.39-0.63-3.43,0.16-3.76,2.04c-0.35,1.98,0.86,3.01,1.82,3.34 c1.29,0.45,3.31-0.27,3.69-1.97C91.83,16.1,91.25,14.54,89.81,13.89z" fill="#FFFFFF"/>
</svg>

<svg viewBox="0 0 128 128" xmlns="http://www.w3.org/2000/svg">
  <defs>
    <radialGradient id="SVGID_1_" cx="69.973726" cy="-28.569808" fx="69.004426" fy="-28.530908" gradientTransform="matrix(-0.1016 0.9948 -2.2231 -0.2271 0 0)" gradientUnits="userSpaceOnUse" r="40.285">
      <stop offset="0.2511" stop-color="#346FD0"/>
      <stop offset="0.2615" stop-color="#336DCE"/>
      <stop offset="0.4516" stop-color="#284DA5"/>
      <stop offset="0.5501" stop-color="#244196"/>
    </radialGradient>
  </defs>
  <path d="M72.36,61.35 C71.73,60.96 43.74,66.05 43.74,66.05 C43.74,66.05 32.85,78.14 30.56,80.2 C28.27,82.25 23.54,86.35 20.7,88.48 C17.86,90.61 12.34,94.55 12.34,94.55 L20.86,102.99 L70.39,115.06 C70.39,115.06 113.23,103.59 112.82,102.77 C112.41,101.95 72.36,61.35 72.36,61.35 Z" fill="url(#SVGID_1_)"/>
  <path d="M79.43,62.92 L75.11,75.26 C75.11,75.26 81.49,85.15 83.33,87.6 C85.17,90.05 94.38,100.43 94.38,100.43 L114.93,91.16 C114.93,91.16 110.38,89.24 102.34,82.24 C94.3,75.25 89.75,71.05 89.75,71.05 L79.43,62.92 Z" fill="#234096"/>
  <path d="M49.33,106.58 C49.23,106.27 41.39,99.36 41.39,99.36 L15.1,106.06 C15.1,106.06 3.45,107.19 3.66,109.67 C3.87,112.14 5.1,117.3 9.85,120.39 C14.59,123.48 21.81,123.48 26.45,123.69 C31.09,123.9 54.5,123.9 67.38,124 C80.27,124.1 100.06,124.21 107.08,123.48 C114.1,122.75 119.35,120.28 121.82,116.37 C124.29,112.45 124.5,108.95 124.29,105.85 C124.08,102.76 93.87,112.76 93.87,112.76 L49.33,106.58 Z" fill="#BDCCD1"/>
  <path d="M50.46,101.84 C50.46,101.84 48.81,95.96 40.56,94.52 C32.31,93.08 28.7,96.58 26.13,96.27 C23.55,95.96 22.01,93.07 16.23,93.49 C10.45,93.91 6.43,97 4.79,101.94 C3.15,106.88 3.66,109.67 3.66,109.67 C3.66,109.67 5,115.55 16.86,115.24 C28.72,114.93 32.22,110.6 37.17,107.51 C42.12,104.42 45.01,103.49 45.52,104.52 C46.04,105.55 41.81,107.72 40.36,111.53 C38.91,115.34 38.5,117.1 40.88,117.2 C43.25,117.3 78.31,116.79 89.24,116.79 C100.17,116.79 112.44,116.27 117.49,113.7 C122.54,111.12 124.6,108.65 124.6,108.65 C124.6,108.65 126.46,102.46 120.79,95.66 C115.12,88.85 107.7,88.34 102.23,90.3 C96.77,92.26 93.67,97.11 93.67,97.11 C93.67,97.11 90.9,92.91 83.77,92.57 C70.57,91.95 63.87,102.98 63.87,102.98 C63.87,102.98 60.78,101.64 57.37,101.33 C54.87,101.09 50.46,101.84 50.46,101.84 Z" fill="#E4EBEE"/>
  <path d="M71.2,76.05 C71.2,76.05 75.29,76.75 75.72,76.55 C76.7,76.1 77.59,74.14 78.16,73.44 C78.58,72.93 79.28,73.2 79.62,73.37 C79.97,73.54 82.8,76.32 83.09,76.37 C83.38,76.43 85.49,76.52 85.61,76.12 C85.73,75.72 82.69,72.85 81.99,72.1 C81.3,71.35 80.57,70.17 81.53,69.62 C82.61,69 83.72,70.02 84.18,70.48 C84.64,70.94 89.39,75.44 89.79,75.62 C90.19,75.79 93.75,75.11 94.03,74.64 C94.21,74.34 91.22,71.56 89.53,69.99 C88.12,68.68 82.12,63.03 79.75,60.84 C77.38,58.65 74.18,55.35 73.43,54.43 C72.89,53.76 71.53,52.26 70.26,51.36 C69.77,51.02 69.14,50.53 68.63,50.83 C68.21,51.08 67.72,51.42 67.72,51.42 C67.72,51.42 66.46,52.38 64.32,52.54 C62.4,52.68 61.62,51.96 61.2,51.54 C60.61,50.96 60.19,50.37 58.8,50.81 C57.51,51.22 58.47,54.54 58.47,54.54 L71.2,76.05 Z" fill="#8CC2EA"/>
  <path d="M45.72,72.62 C45.72,72.62 48.2,73.78 48.55,75.28 C48.9,76.78 49.13,79.01 50.14,79.57 C51.7,80.44 55.86,74.59 56.92,73.14 C58.02,71.64 59.17,70.31 61.08,70.89 C62.99,71.47 63.62,73.32 63.62,73.32 L63.5,68.06 L56.28,66.15 L49.06,71.64 L45.72,72.62 Z" fill="#8CC2EA"/>
  <path d="M51.84,58.07 C51.96,57.84 58.97,51.89 58.97,51.89 C58.97,51.89 58.82,52.79 59.13,53.21 C59.48,53.67 61.28,54.97 61.91,55.08 C62.78,55.23 65.24,55.08 65.88,54.74 C66.52,54.4 67.07,53.86 67.07,53.86 L66.97,56.07 L64.83,60 L65.7,64.56 L70.61,68.83 L71.26,77.83 C71.26,77.83 70.15,78.18 68.01,78.41 C65.87,78.64 59.57,78.88 58.53,78.94 C57.49,79 56.4,78.94 57.5,77.61 C58.53,76.36 59.87,75.01 60.62,74.2 C61.37,73.39 62.41,71.49 61.14,70.16 C59.87,68.83 58.77,69.12 57.67,69.41 C56.57,69.7 51.78,72.99 49.12,73.22 C46.46,73.45 45.51,73.23 44.47,73.64 C43.85,73.88 42.37,74.78 40.98,75.68 C40.03,76.3 39.09,76.32 38.53,76.21 C37.21,75.97 38.28,74.68 40.02,72.61 C41.14,71.29 42.09,68.82 42.09,68.82 L51.84,58.07 Z" fill="#FFFFFF"/>
  <path d="M47.55,65.1 C48.2,65.18 47.4,66.78 46.63,67.82 C45.86,68.85 45.41,69.77 46.02,70.19 C46.63,70.61 48.81,68.43 49.92,66.94 C51.03,65.45 51.79,63.19 51.37,62.77 C50.95,62.35 50.15,63.46 49.72,63 C49.3,62.54 53.24,58.33 53.24,58.33 L59.07,53.12 C59.07,53.12 58.95,52.64 58.98,52.02 C59,51.58 59.19,50.55 58.61,50.87 C58.04,51.18 51.62,56.74 51.62,56.74 C51.62,56.74 40.32,69.28 39.76,70 C39.2,70.72 38.89,71.36 39.27,72.08 C39.55,72.61 40.25,72.41 40.25,72.41 C40.25,72.41 46.88,65.01 47.55,65.1 Z" fill="#C6E4F7"/>
  <path d="M56.81,57.45 C56.16,57.22 55.16,58.41 54.78,59.86 C54.4,61.31 54.44,62.08 53.75,63.26 C53.06,64.44 49.85,68.35 50.65,69.27 C51.45,70.19 56.28,64.73 56.96,63.95 C57.79,63 58.49,62.11 58.41,61.27 C58.33,60.43 57.61,59.78 57.53,59.36 C57.46,58.94 57.65,57.74 56.81,57.45 Z" fill="#C6E4F7"/>
  <path d="M65.24,52.41 C65.24,52.41 66.63,52.06 67.33,51.56 C68.38,50.8 68.79,50.76 68.82,50.78 C69.14,51.02 69.42,51.49 69.13,52.42 C68.85,53.32 68.19,55 67.88,55.69 C67.57,56.38 66.72,59.04 66.72,59.04 C66.72,59.04 65.9,60.89 66.58,61.77 C66.96,62.26 68.86,64.76 69.71,65.79 C70.55,66.82 71.47,68.28 71.47,68.28 L75.9,76.44 C75.9,76.44 75.78,76.7 72.84,77.56 C71.85,77.85 69.82,78.14 69.82,78.14 C69.82,78.14 68.21,72.13 68.33,71.33 C68.45,70.53 68.83,67.62 68.18,66.97 C67.53,66.32 66.27,66.63 65.39,66.82 C64.51,67.01 62.83,67.43 62.41,66.67 C61.99,65.9 62.75,64.57 63.1,63.34 C63.45,62.11 64.79,58.61 64.79,58.61 C64.79,58.61 66.43,55.57 66.52,55.27 C66.84,54.18 66.02,54.65 66.02,54.65 C66.02,54.65 67.4,53.84 66.92,52.62 C66.66,52.03 65.24,52.41 65.24,52.41 Z" fill="#C6E4F7"/>
  <path d="M84.12,42.25 C83.34,43.17 83.49,44.9 84.86,45.57 C86.3,46.27 87.34,45.57 87.81,44.91 C88.44,44.03 88.33,42.33 87.11,41.67 C86.25,41.19 84.93,41.29 84.12,42.25 Z" fill="#FFFFFF" opacity="0.5"/>
  <path d="M89.74,60.64 C89.25,61.32 89.45,62.56 90.37,63.04 C91.29,63.52 92.14,63.15 92.62,62.49 C93.1,61.83 92.78,60.7 92.14,60.24 C91.21,59.57 90.22,59.97 89.74,60.64 Z" fill="#FFFFFF"/>
  <path d="M112.17,57.66 C112.17,58.28 112.45,58.88 113.48,58.93 C114.51,58.98 114.89,58.24 114.91,57.6 C114.93,56.96 114.29,56.26 113.52,56.27 C112.74,56.3 112.17,56.91 112.17,57.66 Z" fill="#FFFFFF"/>
  <path d="M23.03,76.44 C23.08,77.45 23.7,77.75 24.31,77.75 C24.92,77.75 25.62,77.35 25.69,76.57 C25.77,75.63 25.25,75.09 24.41,75.06 C23.57,75.03 23,75.77 23.03,76.44 Z" fill="#FFFFFF"/>
  <path d="M6.38,54.59 C6.3,55.74 7.41,56.22 8.01,56.19 C8.61,56.15 9.49,55.83 9.61,54.86 C9.72,53.88 9.07,53.06 8.09,53.02 C7.13,52.97 6.43,53.74 6.38,54.59 Z" fill="#FFFFFF"/>
  <path d="M25.79,54.21 C25.34,54.25 24.44,56.95 24.44,56.95 C24.44,56.95 21.68,57.12 21.59,57.44 C21.5,57.76 23.49,59.54 23.49,59.54 C23.49,59.54 22.76,61.96 23.1,62.23 C23.44,62.49 25.75,60.95 25.75,60.95 C25.75,60.95 28.17,62.51 28.47,62.28 C28.77,62.05 27.98,59.41 27.98,59.41 C27.98,59.41 29.86,57.78 29.84,57.4 C29.82,57.02 27.08,57.02 27.08,57.02 C27.08,57.02 26.11,54.19 25.79,54.21 Z" fill="#FFFFFF"/>
  <path d="M36.33,24.16 C35.55,25.08 35.7,26.81 37.07,27.48 C38.51,28.18 39.55,27.48 40.02,26.82 C40.65,25.94 40.54,24.24 39.32,23.58 C38.46,23.11 37.14,23.2 36.33,24.16 Z" fill="#FFFFFF" opacity="0.5"/>
  <path d="M89.81,13.89 C88.42,13.26 86.38,14.05 86.05,15.93 C85.7,17.91 86.91,18.94 87.87,19.27 C89.16,19.72 91.18,19 91.56,17.3 C91.83,16.1 91.25,14.54 89.81,13.89 Z" fill="#FFFFFF"/>
</svg>
